src/assets/images/icons/instagram.svg

<svg width="30" height="30" viewBox="0 0 30 30" fill="none" xmlns="http://www.w3.org/2000/svg">
<path d="M15.0031 7.62115C10.9198 7.62115 7.62588 10.9159 7.62588 15C7.62588 19.0841 10.9198 22.3788 15.0031 22.3788C19.0864 22.3788 22.3804 19.0841 22.3804 15C22.3804 10.9159 19.0864 7.62115 15.0031 7.62115ZM15.0031 19.4672C12.5461 19.4672 10.537 17.4635 10.537 15C10.537 12.5363 12.5401 10.5328 15.0031 10.5328C17.4662 10.5328 19.4693 12.5363 19.4693 15C19.4693 17.4635 17.4601 19.4672 15.0031 19.4672ZM22.474 9.40194C23.5084 9.40194 24.348 8.56934 24.348 7.5275C24.348 6.4924 23.5089 5.65306 22.474 5.65306C21.439 5.65306 20.5999 6.4924 20.5999 7.5275C20.5999 8.56212 21.4322 9.40194 22.474 9.40194ZM29.1014 9.21654C28.9939 6.94862 28.4737 4.90474 26.7818 3.21874C25.0962 1.5327 23.0528 1.01247 20.7856 0.898689C18.4665 0.767109 11.5341 0.767104 9.21469 0.898674C6.95325 1.0062 4.91018 1.52656 3.21845 3.21222C1.52609 4.89853 1.0124 6.94277 0.898667 9.21001C0.767117 11.5296 0.767111 18.4635 0.898651 20.7835C1.00614 23.0515 1.52634 25.0955 3.21845 26.7815C4.91016 28.4672 6.94695 28.9875 9.21444 29.1013C11.5336 29.2329 18.4658 29.2329 20.7853 29.1013C23.0529 28.9938 25.0964 28.4735 26.7821 26.781C28.4675 25.095 28.9876 23.0513 29.1013 20.7837C29.2329 18.464 29.2329 11.5365 29.1014 9.21654ZM25.73 23.1796C25.2631 24.3528 24.3604 25.2561 23.1804 25.7294C22.2961 26.08 20.7768 26.2212 19.1953 26.2705C18.0708 26.3055 16.9371 26.294 16.0073 26.2846C15.6354 26.2808 15.2962 26.2774 15.0031 26.2774C14.7158 26.2774 14.3839 26.2806 14.0202 26.2841C13.0859 26.293 11.9423 26.304 10.8087 26.2681C9.22606 26.218 7.70626 26.0769 6.82498 25.7291C5.6523 25.2622 4.74947 24.3594 4.27626 23.1795C3.92566 22.295 3.78451 20.7751 3.73521 19.1931C3.70015 18.0684 3.71164 16.9345 3.72107 16.0044C3.72484 15.6324 3.72828 15.2931 3.72828 15C3.72828 14.7126 3.72509 14.3806 3.7216 14.0169C3.71264 13.0823 3.70167 11.9385 3.73755 10.8046C3.78764 9.22175 3.92876 7.7017 4.2764 6.82018C4.74322 5.64709 5.64581 4.74398 6.82561 4.27066C7.70986 3.92001 9.22932 3.77884 10.8109 3.72952C11.9354 3.69446 13.0691 3.70596 13.999 3.71538C14.3708 3.71915 14.7101 3.72259 15.0031 3.72259C15.2904 3.72259 15.6224 3.71941 15.986 3.71592C16.9203 3.70695 18.064 3.69598 19.1976 3.73186C20.7802 3.78197 22.2999 3.92314 23.1812 4.27089C24.354 4.73785 25.2569 5.64067 25.7301 6.8208C26.0806 7.7053 26.2217 9.22502 26.271 10.8069C26.3061 11.9316 26.2946 13.0655 26.2852 13.9956C26.2814 14.3676 26.278 14.7069 26.278 15C26.278 15.2931 26.2814 15.6324 26.2852 16.0045C26.2946 16.9351 26.3061 18.0701 26.271 19.1955C26.2217 20.7786 26.0805 22.2984 25.73 23.1796Z" fill="white" stroke="white" stroke-width="0.4"/>
</svg>

<svg xmlns="http://www.w3.org/2000/svg" width="30" height="30" fill="none"><path fill="#E1E2E8" stroke="#E1E2E8" stroke-width=".4" d="M15 7.6a7.4 7.4 0 1 0 0 14.8 7.4 7.4 0 0 0 0-14.8Zm0 11.9a4.5 4.5 0 1 1 0-9 4.5 4.5 0 0 1 0 9Zm7.5-10.1a1.9 1.9 0 1 0 0-3.7 1.9 1.9 0 0 0 0 3.7Zm6.6-.2a8.5 8.5 0 0 0-2.3-6 8.5 8.5 0 0 0-6-2.3H9.2C7 1 5 1.5 3.2 3.2a8.5 8.5 0 0 0-2.3 6v11.6c.1 2.3.6 4.3 2.3 6a8.5 8.5 0 0 0 6 2.3h11.6c2.3-.1 4.3-.6 6-2.3a8.5 8.5 0 0 0 2.3-6V9.2Zm-3.4 14c-.4 1.2-1.3 2-2.5 2.5-.9.4-2.4.5-4 .6h-8.4c-1.6 0-3-.2-4-.6-1.1-.4-2-1.3-2.5-2.5-.4-.9-.5-2.4-.6-4v-8.4c0-1.6.2-3.1.6-4 .4-1.2 1.3-2 2.5-2.5 1-.4 2.4-.5 4-.6H14a104.5 104.5 0 0 0 5.2 0c1.6 0 3.1.2 4 .6 1.2.4 2 1.3 2.5 2.5.4 1 .5 2.4.6 4V14a103.6 103.6 0 0 0 0 2v3.2c0 1.6-.2 3.1-.6 4Z"/></svg>
